X: 512
T: Dance all Night
B: jims roots
M:C|
L:1/8
R: Reel
Q: 1/4=100
K:G
V:1 
%N:Reed was originally from southwest Oklahoma.
%N:Transcription was of Burrell's first time through. He tended to
%N:make the tune more "square" in each subsequent time through.
%F:http://www.slippery-hill.com/recording/dance-all-night
fg-| "G"gfga gedc|BGBG [G2B2]cB|"D"A[F3A3][FA]GAc|"G"BGBG [G2B2][_Bf]([=Bg] |
"G"gfga gedc|BGBG [GB]GFE|"D"DEFG AFAc|"G"BG G2 [G4B4]||
"G"[G4(B4][B4)d4]|[B,4D4][B4g4]|[M:2/4]d3 B|[M:C|] "D"cBAF DFAc |"G"B[G3B3] [G4B4]|
"G"[B4d4][B,4D4]|[B4g4] d3B| "D"cBAF DFAc |"G"B[G2B2][GB] [G2B2]|| 	
V:B2g2 
)ga g2dc|BGBG [G2B2][_Bf]([=Bg] |[Bg])fga gedg|"D"ea2a bafd|
% abcbook-tune_id 6298c24551f5178774501753


% abcbook-boost 0
% abcbook-tablature 
% abcbook-transpose 
% abcbook-lastupdated 1654178373938
% abcbook-soundfonts 
% abcbook-repeats 1


